X: 447
T:Swedish Waltz from Grouppa
M:3/4
L:1/8
S:Grouppa
R:Waltz
N:Posted to the woodenflute mailing list October 2001
N:Identified by Trevor Keates
Z:Steve Mansfield October 2001
K:Bm
B fg |: f3 B fg | e4 EA | c4 BA | F3 f fg |
f3 B fg | e4 ed | (cd e)(f ed) |1 B3 Bfg :|2 B4 z2 |:
(dFF)(dFd) | (cEE)(cEc) | (BGG)(BAG) | F2 E2 DE |
(dFF)(dFd) | (cEE)(cEc) | (BA B)(d cA) | B2 B4 :|
<end>
<start>
